formas-de-pagamento/discover-v2.svg

<svg enable-background="new 0 0 60 40" height="40" viewBox="0 0 60 40" width="60" xmlns="http://www.w3.org/2000/svg" xmlns:xlink="http://www.w3.org/1999/xlink"><linearGradient id="a" gradientUnits="userSpaceOnUse" x1="29.0078" x2="33.8774" y1="16.7885" y2="23.6117"><stop offset="0" stop-color="#e25416"/><stop offset="1" stop-color="#f9a020"/></linearGradient><switch><foreignObject height="1" requiredExtensions="http://ns.adobe.com/AdobeIllustrator/10.0/" width="1"/><g><path d="m60 35c0 2.75-2.25 5-5 5h-50c-2.75 0-5-2.25-5-5v-30c0-2.75 2.25-5 5-5h50c2.75 0 5 2.25 5 5z" fill="#f5f5f5"/><path d="m55 0h-50c-2.75 0-5 2.25-5 5v30c0 2.75 2.25 5 5 5h50c2.75 0 5-2.25 5-5v-30c0-2.75-2.25-5-5-5zm0 1c2.206 0 4 1.794 4 4v30c0 2.206-1.794 4-4 4h-50c-2.206 0-4-1.794-4-4v-30c0-2.206 1.794-4 4-4z" fill="#fff"/><path d="m31.34 16.19c-2.178 0-3.946 1.702-3.946 3.801 0 2.232 1.69 3.902 3.946 3.902 2.197 0 3.932-1.691 3.932-3.856-.001-2.157-1.724-3.847-3.932-3.847z" fill="url(#a)"/><path d="m53.42 23.725-2.353-3.149c1.097-.222 1.703-.974 1.703-2.116 0-1.402-.961-2.208-2.643-2.208h-2.162v7.473h1.457v-3.002h.191l2.017 3.002zm-2.15-5.188c0 .75-.495 1.154-1.423 1.154h-.425v-2.264h.447c.906.002 1.401.383 1.401 1.11zm-8.404 5.188v-7.473h4.133v1.266h-2.677v1.659h2.576v1.266h-2.576v2.017h2.677v1.266h-4.133zm-3.888.191h-.784l-3.17-7.664h1.59l1.993 5.02 2.017-5.02h1.581zm-14.003-.023c-2.219 0-3.944-1.703-3.944-3.899 0-2.172 1.771-3.91 3.978-3.91.626 0 1.153.134 1.792.459v1.715c-.606-.595-1.132-.841-1.826-.841-1.368 0-2.444 1.131-2.444 2.565 0 1.512 1.043 2.576 2.511 2.576.661 0 1.175-.235 1.759-.818v1.715c-.66.315-1.199.438-1.826.438zm-6.98.013c-1.11 0-1.916-.437-2.588-1.423l.941-.907c.335.649.896.996 1.589.996.651 0 1.132-.448 1.132-1.053 0-.314-.143-.582-.434-.774-.147-.089-.438-.225-1.009-.424-1.367-.493-1.837-1.019-1.837-2.05 0-1.22 1.009-2.139 2.329-2.139.818 0 1.57.28 2.196.828l-.761.998c-.383-.427-.739-.606-1.177-.606-.626 0-1.088.359-1.088.829 0 .404.261.616 1.133.941 1.658.606 2.151 1.143 2.151 2.33 0 1.444-1.065 2.454-2.577 2.454zm-4.593-7.654h1.455v7.473h-1.455zm-.672 3.742c0-2.207-1.648-3.742-4.011-3.742h-2.139v7.473h2.127c1.132 0 1.95-.269 2.667-.863.852-.704 1.356-1.77 1.356-2.868zm-1.502-.011c0 .718-.301 1.434-.806 1.882-.459.414-1.053.594-1.994.594h-.392v-4.942h.393c.941 0 1.512.168 1.994.605.504.449.805 1.144.805 1.861z" fill="#221f1f"/><path d="m27.834 20.441c0-2.099 1.768-3.801 3.946-3.801 1.003 0 1.905.349 2.592.931-.714-.849-1.801-1.381-3.042-1.381-2.178 0-3.946 1.702-3.946 3.801 0 1.227.511 2.283 1.345 2.986-.563-.671-.895-1.548-.895-2.536z" fill="#a3310b"/></g></switch></svg>

<?xml version="1.0" encoding="UTF-8"?>
<svg width="60px" height="40px" viewBox="0 0 60 40" version="1.1" xmlns="http://www.w3.org/2000/svg" xmlns:xlink="http://www.w3.org/1999/xlink">
    <!-- Generator: Sketch 52.4 (67378) - http://www.bohemiancoding.com/sketch -->
    <title>Artboard</title>
    <desc>Created with Sketch.</desc>
    <defs>
        <linearGradient x1="20.4848946%" y1="7.76970012%" x2="82.2975374%" y2="96.348176%" id="linearGradient-1">
            <stop stop-color="#E25416" offset="0%"></stop>
            <stop stop-color="#F9A020" offset="100%"></stop>
        </linearGradient>
    </defs>
    <g id="Artboard" stroke="none" stroke-width="1" fill="none" fill-rule="evenodd">
        <g id="discover-v2">
            <path d="M60,35 C60,37.75 57.75,40 55,40 L5,40 C2.25,40 0,37.75 0,35 L0,5 C0,2.25 2.25,0 5,0 L55,0 C57.75,0 60,2.25 60,5 L60,35 Z" id="Path" fill="#F5F5F5"></path>
            <path d="M55,0 L5,0 C2.25,0 0,2.25 0,5 L0,35 C0,37.75 2.25,40 5,40 L55,40 C57.75,40 60,37.75 60,35 L60,5 C60,2.25 57.75,0 55,0 Z M55,1 C57.206,1 59,2.794 59,5 L59,35 C59,37.206 57.206,39 55,39 L5,39 C2.794,39 1,37.206 1,35 L1,5 C1,2.794 2.794,1 5,1 L55,1 Z" id="Shape" fill="#D0D0D0" fill-rule="nonzero"></path>
            <path d="M31.34,16.19 C29.162,16.19 27.394,17.892 27.394,19.991 C27.394,22.223 29.084,23.893 31.34,23.893 C33.537,23.893 35.272,22.202 35.272,20.037 C35.271,17.88 33.548,16.19 31.34,16.19 Z" id="Path" fill="url(#linearGradient-1)"></path>
            <path d="M53.42,23.725 L51.067,20.576 C52.164,20.354 52.77,19.602 52.77,18.46 C52.77,17.058 51.809,16.252 50.127,16.252 L47.965,16.252 L47.965,23.725 L49.422,23.725 L49.422,20.723 L49.613,20.723 L51.63,23.725 L53.42,23.725 Z M51.27,18.537 C51.27,19.287 50.775,19.691 49.847,19.691 L49.422,19.691 L49.422,17.427 L49.869,17.427 C50.775,17.429 51.27,17.81 51.27,18.537 Z M42.866,23.725 L42.866,16.252 L46.999,16.252 L46.999,17.518 L44.322,17.518 L44.322,19.177 L46.898,19.177 L46.898,20.443 L44.322,20.443 L44.322,22.46 L46.999,22.46 L46.999,23.726 L42.866,23.726 L42.866,23.725 Z M38.978,23.916 L38.194,23.916 L35.024,16.252 L36.614,16.252 L38.607,21.272 L40.624,16.252 L42.205,16.252 L38.978,23.916 Z M24.975,23.893 C22.756,23.893 21.031,22.19 21.031,19.994 C21.031,17.822 22.802,16.084 25.009,16.084 C25.635,16.084 26.162,16.218 26.801,16.543 L26.801,18.258 C26.195,17.663 25.669,17.417 24.975,17.417 C23.607,17.417 22.531,18.548 22.531,19.982 C22.531,21.494 23.574,22.558 25.042,22.558 C25.703,22.558 26.217,22.323 26.801,21.74 L26.801,23.455 C26.141,23.77 25.602,23.893 24.975,23.893 Z M17.995,23.906 C16.885,23.906 16.079,23.469 15.407,22.483 L16.348,21.576 C16.683,22.225 17.244,22.572 17.937,22.572 C18.588,22.572 19.069,22.124 19.069,21.519 C19.069,21.205 18.926,20.937 18.635,20.745 C18.488,20.656 18.197,20.52 17.626,20.321 C16.259,19.828 15.789,19.302 15.789,18.271 C15.789,17.051 16.798,16.132 18.118,16.132 C18.936,16.132 19.688,16.412 20.314,16.96 L19.553,17.958 C19.17,17.531 18.814,17.352 18.376,17.352 C17.75,17.352 17.288,17.711 17.288,18.181 C17.288,18.585 17.549,18.797 18.421,19.122 C20.079,19.728 20.572,20.265 20.572,21.452 C20.572,22.896 19.507,23.906 17.995,23.906 Z M13.402,16.252 L14.857,16.252 L14.857,23.725 L13.402,23.725 L13.402,16.252 Z M12.73,19.994 C12.73,17.787 11.082,16.252 8.719,16.252 L6.58,16.252 L6.58,23.725 L8.707,23.725 C9.839,23.725 10.657,23.456 11.374,22.862 C12.226,22.158 12.73,21.092 12.73,19.994 Z M11.228,19.983 C11.228,20.701 10.927,21.417 10.422,21.865 C9.963,22.279 9.369,22.459 8.428,22.459 L8.036,22.459 L8.036,17.517 L8.429,17.517 C9.37,17.517 9.941,17.685 10.423,18.122 C10.927,18.571 11.228,19.266 11.228,19.983 Z" id="Shape" fill="#221F1F" fill-rule="nonzero"></path>
            <path d="M27.834,20.441 C27.834,18.342 29.602,16.64 31.78,16.64 C32.783,16.64 33.685,16.989 34.372,17.571 C33.658,16.722 32.571,16.19 31.33,16.19 C29.152,16.19 27.384,17.892 27.384,19.991 C27.384,21.218 27.895,22.274 28.729,22.977 C28.166,22.306 27.834,21.429 27.834,20.441 Z" id="Path" fill="#A3310B"></path>
        </g>
    </g>
</svg>
